src/assets/layout/Dashboard.svg

<?xml version="1.0" encoding="UTF-8"?>
<svg width="24px" height="24px" viewBox="0 0 24 24" version="1.1" xmlns="http://www.w3.org/2000/svg" xmlns:xlink="http://www.w3.org/1999/xlink">
    <title>Foundations/Icons/Dashboard@1x</title>
    <g id="💡-Icons" stroke="none" stroke-width="1" fill="none" fill-rule="evenodd">
        <g id="Foundations/Icons/Dashboard" fill="#C09853">
            <path d="M10.6403889,14.9887777 C11.261043,14.9856044 11.7741248,15.4543514 11.8392108,16.0611118 L11.8461538,16.1842051 L11.8461538,19.5497657 C11.8441829,19.8681036 11.7158399,20.1726235 11.4893501,20.3963314 C11.2952244,20.5880727 11.0426266,20.706985 10.7754242,20.7358245 L10.640809,20.7426585 L5.20384824,20.733575 C4.58355009,20.7361438 4.07124304,20.2671461 4.0068135,19.6611097 L4,19.5381744 L4,16.1815161 C4.00164262,15.8633332 4.12969632,15.5588511 4.35596134,15.3351389 C4.54989442,15.1433937 4.80234174,15.0244656 5.06885432,14.9956219 L5.20307692,14.9887777 L10.6403889,14.9887777 Z M19.5341969,10.8041846 C19.8538282,10.805166 20.159979,10.9330787 20.3852992,11.1597854 C20.5784286,11.3541033 20.6986135,11.6073597 20.7283973,11.8760288 L20.7356765,12.0114462 L20.7356765,19.525247 C20.7369495,20.1482561 20.2654645,20.6621463 19.6574811,20.7267494 L19.5341641,20.7335788 L14.0922251,20.7426451 C13.7723801,20.7419925 13.4659126,20.6142238 13.2403261,20.3874816 C13.0469683,20.1931333 12.9266267,19.9397356 12.8968026,19.6708918 L12.8895115,19.5353846 L12.8895115,12.0130438 C12.8885409,11.6934157 13.0145729,11.3864897 13.2398906,11.1597854 C13.4330221,10.9654653 13.6855395,10.8437287 13.9560386,10.8122945 L14.0925949,10.8041846 L19.5341969,10.8041846 Z M10.6457649,16.0349281 L5.19986914,16.0349281 C5.15931211,16.0346823 5.12032532,16.0505613 5.0914954,16.0790659 C5.07227801,16.0980665 5.05862155,16.1216405 5.05159281,16.1464593 L5.04614691,16.1842051 L5.04614691,19.5354798 C5.04649429,19.6029148 5.09049374,19.6599254 5.15279431,19.6798516 L5.2025551,19.6874264 L10.6448862,19.696518 C10.685786,19.6967657 10.7251045,19.680763 10.7541927,19.6520321 C10.7735823,19.6328806 10.7873704,19.609117 10.7944797,19.584245 L10.80001,19.5465436 L10.80001,16.1874337 C10.7995918,16.1196885 10.7553281,16.0624572 10.6942775,16.0424973 L10.6457649,16.0349281 Z M19.5309928,11.850336 L14.0941969,11.850336 C14.0520234,11.8504652 14.0116285,11.8673425 13.9818987,11.8972552 C13.9620783,11.9171976 13.94808,11.9418455 13.940989,11.9690324 L13.9356654,12.0114462 L13.9356654,19.5369809 C13.9355373,19.5791877 13.9521904,19.6197133 13.9819562,19.6496316 C14.0017995,19.6695765 14.0263857,19.6837174 14.0525015,19.690954 L14.0924205,19.696493 L19.5306219,19.6874325 C19.601035,19.687073 19.6605987,19.6411933 19.6815148,19.5772414 L19.6895244,19.5263179 L19.6895244,12.0098485 C19.6896524,11.9676698 19.6730217,11.9271688 19.643291,11.8972552 C19.6234712,11.8773134 19.5989113,11.8631651 19.5722444,11.8559104 L19.5309928,11.850336 Z M5.20464615,4.00418534 L10.6459126,4.01325565 C11.269006,4.0158028 11.7798963,4.49081553 11.8402022,5.09694286 L11.8461568,5.21981538 L11.8461568,12.7350119 C11.8474299,13.3585585 11.3749043,13.8725584 10.7664748,13.9360546 L10.6430769,13.9426462 L5.20200861,13.9426462 C4.88234847,13.9419922 4.57605846,13.8142966 4.35060296,13.5876849 C4.15735743,13.3934484 4.03708609,13.1401968 4.00728005,12.87151 L3.99999537,12.7360821 L3.99999537,5.21181018 C3.99934924,4.8921823 4.1256949,4.5853866 4.35124355,4.35891357 C4.54457299,4.16479179 4.7972137,4.04331355 5.0667349,4.01215595 L5.20464615,4.00418534 Z M5.204,5.05 L5.16358587,5.05586965 C5.13691163,5.06309712 5.11233738,5.07722029 5.09249724,5.09714174 C5.07265649,5.11706381 5.05863306,5.14169727 5.05151431,5.16871791 L5.04614744,5.21074872 L5.04614744,12.73768 C5.04601981,12.7797017 5.06259973,12.8200496 5.09223494,12.8498368 C5.11199112,12.8696943 5.13646955,12.8837733 5.16272622,12.8909779 L5.20307692,12.8964948 L10.6414735,12.8964948 C10.7116804,12.8962796 10.7711297,12.8505957 10.7920087,12.7868498 L10.8000029,12.7360821 L10.8000029,5.21874337 C10.8001464,5.14858611 10.7548303,5.08893063 10.6924468,5.06769304 L10.6429026,5.0594044 L5.204,5.05 Z M19.527,4.004 L19.6500417,4.00948314 C20.2146393,4.06269125 20.6665664,4.50790887 20.7284762,5.07492551 L20.7356718,5.19819487 L20.7356718,8.56778908 C20.7311892,9.18807824 20.2564068,9.69503117 19.6545573,9.75262153 L19.5325949,9.75806585 L14.0963355,9.75806585 C13.7783561,9.76030918 13.4725076,9.6361085 13.2461534,9.41277241 C13.0521242,9.22133019 12.9301479,8.97050556 12.8980151,8.70045944 L12.8895179,8.56402051 L12.8895179,5.20402636 C12.8933623,4.58409136 13.3673554,4.07694782 13.9685031,4.01879617 L14.0903265,4.01325201 L19.527,4.004 Z M19.534967,5.05030267 L14.0884882,5.0593981 C14.0213606,5.05905008 13.9641604,5.10226029 13.9437048,5.16086326 L13.9356618,5.20726154 L13.9356618,8.56079205 C13.9359109,8.60114348 13.9521905,8.63974081 13.9809147,8.66808198 C14.0000676,8.68697955 14.0237099,8.70028696 14.050416,8.70696932 L14.0925949,8.71190762 L19.5358224,8.71190762 C19.6032708,8.71232083 19.6607869,8.66896387 19.6813994,8.61037356 L19.6895356,8.56402051 L19.6895356,5.20249516 C19.6888394,5.11781229 19.6196631,5.04969677 19.534967,5.05030267 Z" id="Combined-Shape"></path>
        </g>
    </g>
</svg>

<svg width="24" height="24" viewBox="0 0 24 24" xmlns="http://www.w3.org/2000/svg"><path d="M10.64 14.989a1.2 1.2 0 011.2 1.072l.006.123v3.366a1.2 1.2 0 01-1.07 1.186l-.135.007-5.437-.01a1.2 1.2 0 01-1.197-1.072L4 19.538v-3.356a1.199 1.199 0 011.069-1.186l.134-.007h5.437zm8.894-4.185a1.205 1.205 0 011.194 1.072l.008.135v7.514a1.206 1.206 0 01-1.079 1.202l-.123.007-5.442.009a1.205 1.205 0 01-1.195-1.072l-.007-.136v-7.522a1.205 1.205 0 011.066-1.2l.137-.009h5.441zm-8.888 5.23H5.2a.153.153 0 00-.148.112l-.006.038v3.351c0 .068.044.125.107.145l.05.007 5.442.01a.154.154 0 00.15-.113l.005-.037v-3.36a.154.154 0 00-.106-.145l-.048-.007zm8.885-4.184h-5.437a.159.159 0 00-.153.119l-.005.042v7.526a.159.159 0 00.117.154l.04.005 5.438-.009a.16.16 0 00.15-.11l.009-.05V12.01a.159.159 0 00-.118-.154l-.041-.006zM5.205 4.004l5.44.01a1.205 1.205 0 011.195 1.083l.006.123v7.515a1.205 1.205 0 01-1.08 1.201l-.123.007H5.202a1.204 1.204 0 01-1.195-1.071L4 12.736V5.212a1.205 1.205 0 011.067-1.2l.138-.008zM5.204 5.05l-.04.006a.159.159 0 00-.112.113l-.006.042v7.527a.158.158 0 00.117.153l.04.005h5.438c.07 0 .13-.045.151-.11l.008-.05V5.22a.16.16 0 00-.108-.151l-.05-.009-5.438-.009zm14.323-1.046l.123.005a1.2 1.2 0 011.078 1.066l.008.123v3.37a1.199 1.199 0 01-1.081 1.185l-.122.005h-5.437A1.198 1.198 0 0112.898 8.7l-.008-.136v-3.36a1.198 1.198 0 011.079-1.185l.121-.006 5.437-.009zm.008 1.046l-5.447.01a.153.153 0 00-.144.1l-.008.047v3.354a.152.152 0 00.114.146l.043.005h5.443a.154.154 0 00.145-.102l.009-.046V5.202a.153.153 0 00-.155-.152z" fill="#C09853" fill-rule="evenodd"/></svg>
